X:37
T:The Blockade
M:6/8
L:1/8
R:Jig
C:Gris Sanderson
Q:400
N:Once in the '90s when the French Farmers were protesting 
N:against EU legislation they blockaded several ports. 
N:Although it was a nuisance I had to admire their spirit- no 
N:complacency there! This tune was written during a long wait 
N:for a ferry and was originally intended for the scordatura 
N:tuning A,DAd. It is on the Spyka album.
K:Edor
CDD FDD|CDD EFA|~B3dcA|Bcde3|
fed cdd|edc~B3|1A2B dcA|BAF EFD:|2~B3dcA|Bcde3||
|:age ddd|cdB dcd|eee dcd|ege a2a|
|1ged cAG|AcA GAc|~B3 cAG|AcA g2g:|
|2d'dg ead|ded cAG|AcA GAc|dde g2a||
